static/marker.svg

<svg width="17" height="20" viewBox="0 0 17 20" fill="none" xmlns="http://www.w3.org/2000/svg">
<path d="M14.4828 2.57725C11.1487 -0.83806 5.76703 -0.861961 2.46289 2.52347C-0.76208 5.82696 -0.81708 11.1569 2.28123 14.5859H2.2804L2.29873 14.6047C2.36956 14.6824 2.44123 14.76 2.51539 14.836C2.54123 14.8625 2.56789 14.8881 2.59373 14.9145L6.70953 19.2287C7.68202 20.2488 9.28117 20.2582 10.2653 19.2501L14.242 15.1766C14.342 15.0836 14.4395 14.9888 14.5361 14.8898C14.632 14.7916 14.7253 14.6909 14.8161 14.5885L14.8195 14.5851C17.8369 11.1817 17.7203 5.89099 14.4845 2.5764L14.4828 2.57725ZM8.67368 11.7536C6.68536 11.8569 5.05204 10.1838 5.15287 8.14709C5.23954 6.40315 6.62203 4.98615 8.32451 4.89823C10.3128 4.79494 11.9461 6.46803 11.8453 8.50475C11.7586 10.2487 10.3762 11.6657 8.67368 11.7536Z" fill="url(#paint0_linear_0_3933)"/>
<defs>
<linearGradient id="paint0_linear_0_3933" x1="15" y1="14" x2="2.5" y2="4.5" gradientUnits="userSpaceOnUse">
<stop stop-color="#1C47C2"/>
<stop offset="1" stop-color="#2C6BFC"/>
</linearGradient>
</defs>
</svg>

<svg xmlns="http://www.w3.org/2000/svg" width="17" height="20" fill="none"><path fill="url(#a)" d="M14.483 2.577C11.149-.838 5.767-.862 2.463 2.523c-3.225 3.304-3.28 8.634-.182 12.063l.018.019c.07.077.142.155.216.231l.079.079 4.116 4.314a2.458 2.458 0 0 0 3.555.021l3.977-4.073a8.435 8.435 0 0 0 .574-.588l.003-.004c3.018-3.403 2.901-8.694-.335-12.009l-.001.001Zm-5.81 9.177c-1.988.103-3.621-1.57-3.52-3.607.087-1.744 1.469-3.16 3.172-3.249 1.988-.103 3.621 1.57 3.52 3.607-.086 1.744-1.469 3.16-3.171 3.249Z"/><defs><linearGradient id="a" x1="15" x2="2.5" y1="14" y2="4.5" gradientUnits="userSpaceOnUse"><stop stop-color="#1C47C2"/><stop offset="1" stop-color="#2C6BFC"/></linearGradient></defs></svg>
